packages/core/src/svgs/tokens/mono/BDX.svg

<svg width="24" height="24" viewBox="0 0 24 24" fill="none" xmlns="http://www.w3.org/2000/svg">
<path fill-rule="evenodd" clip-rule="evenodd" d="M12 21.4444C14.5048 21.4444 16.9071 20.4494 18.6782 18.6782C20.4494 16.9071 21.4444 14.5048 21.4444 12C21.4444 9.49514 20.4494 7.09296 18.6782 5.32177C16.9071 3.5506 14.5048 2.55557 12 2.55557C9.49514 2.55557 7.09296 3.5506 5.32177 5.32177C3.5506 7.09296 2.55557 9.49514 2.55557 12C2.55557 14.5048 3.5506 16.9071 5.32177 18.6782C7.09296 20.4494 9.49514 21.4444 12 21.4444ZM12 22C13.3133 22 14.6136 21.7414 15.8269 21.2388C17.0401 20.7362 18.1425 19.9997 19.0711 19.0711C19.9997 18.1425 20.7362 17.0401 21.2388 15.8269C21.7414 14.6136 22 13.3133 22 12C22 10.6868 21.7414 9.38643 21.2388 8.17318C20.7362 6.95992 19.9997 5.85752 19.0711 4.92895C18.1425 4.00036 17.0401 3.26376 15.8269 2.76121C14.6136 2.25866 13.3133 2 12 2C9.34784 2 6.80431 3.05358 4.92895 4.92895C3.05358 6.80431 2 9.34784 2 12C2 14.6522 3.05358 17.1957 4.92895 19.0711C6.80431 20.9465 9.34784 22 12 22Z" fill="white"/>
<path fill-rule="evenodd" clip-rule="evenodd" d="M17.5555 5.05518V14.7774C17.5555 15.0721 17.4384 15.3547 17.2301 15.5631C17.0216 15.7714 16.739 15.8885 16.4444 15.8885H10.3333C10.0386 15.8885 9.75602 15.7714 9.54758 15.5631C9.33924 15.3547 9.22217 15.0721 9.22217 14.7774V8.66628C9.22217 8.05517 9.72219 7.55518 10.3333 7.55518H16.1L17.5555 5.05518ZM11.4444 10.3329C11.4444 10.1857 11.5029 10.0442 11.6071 9.94016C11.7114 9.83593 11.8527 9.77734 11.9999 9.77734H14.7777C14.9251 9.77734 15.0664 9.83593 15.1705 9.94016C15.2747 10.0442 15.3333 10.1857 15.3333 10.3329V13.1108C15.3333 13.258 15.2747 13.3993 15.1705 13.5035C15.0664 13.6078 14.9251 13.6662 14.7777 13.6662H11.9999C11.8527 13.6662 11.7114 13.6078 11.6071 13.5035C11.5029 13.3993 11.4444 13.258 11.4444 13.1108V10.3329Z" fill="white"/>
<path d="M15.3333 13.111C15.3333 13.2583 15.2747 13.3996 15.1705 13.5038C15.0664 13.608 14.9251 13.6665 14.7777 13.6665H10.8555C10.3333 13.6665 9.69989 13.6276 9.22217 12.8333V14.7777C9.22217 15.3888 9.72219 15.8888 10.3333 15.8888H14.2222C14.911 15.8888 15.3333 15.3333 15.3333 14.7777V13.111Z" fill="white"/>
<path d="M13.1111 7.55566H10.3333C10.0386 7.55566 9.75602 7.67272 9.54758 7.8811C9.33924 8.08948 9.22217 8.37209 9.22217 8.66677V12.8335C9.69989 13.6278 10.3333 13.6667 10.8555 13.6667H11.9999C11.8527 13.6667 11.7114 13.6083 11.6071 13.504C11.5029 13.3998 11.4444 13.2585 11.4444 13.1113V10.3334C11.4444 10.1862 11.5029 10.0447 11.6071 9.94064C11.7114 9.83642 11.8527 9.77783 11.9999 9.77783H13.1111V7.55566Z" fill="white"/>
<path fill-rule="evenodd" clip-rule="evenodd" d="M5.88867 7.83325V17.5554C5.88867 18.1666 6.38868 18.6666 6.99979 18.6666H13.1109C13.4056 18.6666 13.6882 18.5496 13.8966 18.3411C14.1049 18.1328 14.222 17.8502 14.222 17.5554V11.4444C14.222 11.1496 14.1049 10.8671 13.8966 10.6587C13.6882 10.4503 13.4056 10.3332 13.1109 10.3332H7.34423L5.88867 7.83325ZM11.9998 13.1111C11.9998 12.9637 11.9413 12.8224 11.8371 12.7182C11.7328 12.6141 11.5916 12.5555 11.4443 12.5555H8.66646C8.51912 12.5555 8.37781 12.6141 8.27363 12.7182C8.16943 12.8224 8.1109 12.9637 8.1109 13.1111V15.8888C8.1109 16.0362 8.16943 16.1775 8.27363 16.2817C8.37781 16.3858 8.51912 16.4444 8.66646 16.4444H11.4443C11.5916 16.4444 11.7328 16.3858 11.8371 16.2817C11.9413 16.1775 11.9998 16.0362 11.9998 15.8888V13.1111Z" fill="white"/>
<path d="M5.88867 15.6111V17.5555C5.88867 18.1667 6.38868 18.6667 6.99979 18.6667H10.8887C11.5554 18.6667 11.9998 18.3889 11.9998 17.5555V15.8889C11.9998 16.0363 11.9413 16.1776 11.8371 16.2818C11.7328 16.3859 11.5916 16.4445 11.4443 16.4445H7.27756C6.72201 16.4445 6.21645 16.2668 5.88867 15.6111Z" fill="white"/>
<path d="M10.3331 10.3332H7.34423L5.88867 7.83325V15.611C6.21645 16.2667 6.72201 16.4444 7.27756 16.4444H8.66646C8.51912 16.4444 8.37781 16.3858 8.27363 16.2817C8.16943 16.1775 8.1109 16.0362 8.1109 15.8888V13.1111C8.1109 12.9637 8.16943 12.8224 8.27363 12.7182C8.37781 12.6141 8.51912 12.5555 8.66646 12.5555H10.3331V10.3332Z" fill="white"/>
</svg>

<svg xmlns="http://www.w3.org/2000/svg" width="24" height="24" fill="none" viewBox="0 0 24 24">
    <path fill="#fff" fill-rule="evenodd" d="M12 21.444a9.444 9.444 0 1 0 0-18.888 9.444 9.444 0 0 0 0 18.888M12 22a10 10 0 1 0 0-19.998A10 10 0 0 0 12 22" clip-rule="evenodd"/>
    <path fill="#fff" fill-rule="evenodd" d="M17.556 5.055v9.722a1.11 1.11 0 0 1-1.112 1.112h-6.11a1.11 1.11 0 0 1-1.112-1.112v-6.11c0-.612.5-1.112 1.111-1.112H16.1zm-6.112 5.278A.555.555 0 0 1 12 9.777h2.778a.555.555 0 0 1 .555.556v2.778a.556.556 0 0 1-.555.555H12a.555.555 0 0 1-.556-.555z" clip-rule="evenodd"/>
    <path fill="#fff" d="M15.333 13.111a.556.556 0 0 1-.555.555h-3.923c-.522 0-1.155-.038-1.633-.833v1.945c0 .61.5 1.11 1.111 1.11h3.89c.688 0 1.11-.555 1.11-1.11z"/>
    <path fill="#fff" d="M13.111 7.556h-2.778a1.11 1.11 0 0 0-1.11 1.11v4.168c.477.794 1.11.833 1.632.833H12a.555.555 0 0 1-.556-.556v-2.778A.555.555 0 0 1 12 9.778h1.111z"/>
    <path fill="#fff" fill-rule="evenodd" d="M5.889 7.833v9.722c0 .612.5 1.112 1.11 1.112h6.112a1.11 1.11 0 0 0 1.111-1.112v-6.11a1.11 1.11 0 0 0-1.111-1.112H7.344zm6.11 5.278a.556.556 0 0 0-.555-.556H8.666a.556.556 0 0 0-.555.556v2.778a.556.556 0 0 0 .555.555h2.778A.556.556 0 0 0 12 15.89z" clip-rule="evenodd"/>
    <path fill="#fff" d="M5.889 15.611v1.944c0 .612.5 1.112 1.11 1.112h3.89c.666 0 1.11-.278 1.11-1.112V15.89a.556.556 0 0 1-.555.556H7.278c-.556 0-1.062-.178-1.39-.834"/>
    <path fill="#fff" d="M10.333 10.333H7.344l-1.455-2.5v7.778c.327.656.833.833 1.389.833h1.388a.556.556 0 0 1-.555-.555V13.11a.556.556 0 0 1 .555-.556h1.667z"/>
</svg>
